posts/Configure-VS-for-Non-MSVC-Projects/vs-icon.svg

<?xml version="1.0" encoding="UTF-8"?> <svg xmlns="http://www.w3.org/2000/svg" width="128" height="128" viewBox="0 0 128 128" fill="none"><g clip-path="url(#clip0_7198_82473)"><g clip-path="url(#clip1_7198_82473)"><mask id="mask0_7198_82473" style="mask-type:alpha" maskUnits="userSpaceOnUse" x="5" y="5" width="118" height="118"><path d="M26.939 104.471L7.4355 89.8428C6.82736 89.3911 6.33392 88.8028 5.995 88.1252C5.65609 87.4477 5.48119 86.7 5.48442 85.9425V42.0568C5.48119 41.2992 5.65609 40.5515 5.995 39.874C6.33392 39.1965 6.82736 38.6082 7.4355 38.1564L26.939 23.5279C26.4151 24.0198 26.0192 24.6323 25.7856 25.312C25.552 25.9917 25.4879 26.7181 25.5987 27.4282V100.571C25.4879 101.281 25.552 102.008 25.7856 102.687C26.0192 103.367 26.4151 103.979 26.939 104.471Z" fill="white"></path><path d="M120.342 25.7953C119.539 25.2674 118.598 24.9876 117.636 24.9907C117.013 24.9858 116.395 25.1037 115.818 25.3377C115.241 25.5718 114.715 25.9174 114.272 26.3549L113.931 26.6968L75.0195 63.9997L53.4899 84.6497L33.5713 103.74L33.2293 104.082C32.7862 104.52 32.2608 104.866 31.6834 105.101C31.106 105.335 30.4879 105.453 29.8647 105.448C28.8098 105.446 27.7838 105.103 26.939 104.471L7.4355 89.8428C8.42637 90.5872 9.66368 90.926 10.8955 90.7901C12.1274 90.6542 13.2611 90.0539 14.0659 89.1114L35.7162 63.9759L53.4899 43.3496L84.625 7.19143C85.0771 6.65595 85.6408 6.22578 86.2766 5.93108C86.9125 5.63637 87.6051 5.48425 88.3059 5.48538C89.2674 5.48227 90.2085 5.76208 91.0122 6.28995L120.342 25.7953Z" fill="white"></path><path d="M120.342 102.204L91.0853 121.709C90.0901 122.359 88.8937 122.628 87.716 122.467C86.5383 122.306 85.4583 121.725 84.6743 120.832L53.4899 84.6497L35.7162 63.9759L14.0659 38.8622C13.2539 37.9293 12.1191 37.3381 10.8893 37.2072C9.65949 37.0762 8.42567 37.4154 7.4355 38.1564L26.939 23.5279C27.7838 22.896 28.8098 22.5535 29.8647 22.5514C30.4879 22.5461 31.106 22.6641 31.6834 22.8985C32.2608 23.1329 32.7862 23.4792 33.2293 23.9173L33.5713 24.2593L53.4899 43.3496L75.0195 63.9997L113.931 101.302L114.272 101.644C114.715 102.082 115.241 102.427 115.818 102.662C116.395 102.896 117.013 103.013 117.636 103.008C118.598 103.012 119.539 102.732 120.342 102.204Z" fill="white"></path><path d="M122.513 29.8657V98.1336C122.514 98.9382 122.316 99.7306 121.937 100.441C121.559 101.151 121.011 101.756 120.342 102.204L91.0853 121.709C91.7539 121.261 92.3017 120.655 92.6803 119.945C93.0589 119.235 93.2566 118.442 93.2558 117.637V10.3622C93.245 9.55132 93.0347 8.75564 92.6434 8.0454C92.252 7.33516 91.6918 6.73227 91.0122 6.28995L120.342 25.7953C121.009 26.2448 121.556 26.8508 121.934 27.5604C122.313 28.27 122.511 29.0615 122.513 29.8657Z" fill="white"></path></mask><g mask="url(#mask0_7198_82473)"><path d="M26.939 104.471L7.4355 89.8428C6.82736 89.3911 6.33392 88.8027 5.995 88.1252C5.65609 87.4477 5.48119 86.7 5.48442 85.9425V42.0567C5.48119 41.2992 5.65609 40.5515 5.995 39.874C6.33392 39.1965 6.82736 38.6081 7.4355 38.1564L26.939 23.5278C26.4151 24.0198 26.0192 24.6322 25.7856 25.3119C25.552 25.9916 25.4879 26.7181 25.5987 27.4282V100.571C25.4879 101.281 25.552 102.008 25.7856 102.687C26.0192 103.367 26.4151 103.979 26.939 104.471Z" fill="#5E438F"></path><g filter="url(#filter0_dd_7198_82473)"><path d="M120.344 25.7953C119.541 25.2675 118.6 24.9876 117.638 24.9907C117.015 24.9858 116.397 25.1037 115.82 25.3377C115.243 25.5718 114.717 25.9174 114.274 26.3549L113.933 26.6968L93.2085 46.5679L75.0215 63.9997L53.4919 84.6497L33.5733 103.74L33.2313 104.082C32.7882 104.52 32.2628 104.866 31.6854 105.101C31.108 105.335 30.4899 105.453 29.8668 105.448C28.8118 105.446 27.7858 105.103 26.941 104.471L7.4375 89.8429C8.42836 90.5872 9.66569 90.926 10.8975 90.7901C12.1294 90.6542 13.2631 90.0539 14.0679 89.1114L24.9918 76.434L35.7182 63.9759L53.4919 43.3496L84.627 7.19143C85.0791 6.65595 85.6428 6.22578 86.2786 5.93108C86.9145 5.63637 87.6071 5.48425 88.3079 5.48538C89.2694 5.48227 90.2105 5.76208 91.0142 6.28995L120.344 25.7953Z" fill="url(#paint0_linear_7198_82473)"></path></g><g filter="url(#filter1_dd_7198_82473)"><path d="M120.344 102.204L91.0873 121.71C90.0921 122.36 88.8957 122.629 87.718 122.468C86.5403 122.306 85.4603 121.726 84.6763 120.832L53.4919 84.6502L35.7182 63.9764L24.9918 51.5421L14.0679 38.8628C13.2559 37.9299 12.1211 37.3386 10.8913 37.2077C9.6615 37.0768 8.42767 37.4159 7.4375 38.157L26.941 23.5284C27.7858 22.8965 28.8118 22.554 29.8668 22.5519C30.4899 22.5467 31.108 22.6646 31.6854 22.8991C32.2628 23.1335 32.7882 23.4797 33.2313 23.9179L33.5733 24.2598L53.4919 43.3501L75.0215 64.0002L93.2341 81.4575L113.933 101.303L114.274 101.645C114.717 102.082 115.243 102.428 115.82 102.662C116.397 102.896 117.015 103.014 117.638 103.009C118.6 103.012 119.541 102.732 120.344 102.204Z" fill="url(#paint1_linear_7198_82473)"></path></g><g filter="url(#filter2_dd_7198_82473)"><path d="M122.516 29.8653V98.1332C122.517 98.9378 122.32 99.7302 121.941 100.44C121.562 101.15 121.014 101.756 120.346 102.204L91.0888 121.709C91.7574 121.261 92.3052 120.655 92.6838 119.945C93.0624 119.234 93.26 118.442 93.2593 117.637V10.3618C93.2485 9.55095 93.0381 8.75526 92.6468 8.04502C92.2555 7.33479 91.6953 6.73187 91.0156 6.28955L120.346 25.7949C121.013 26.2444 121.559 26.8504 121.938 27.56C122.316 28.2696 122.515 29.0611 122.516 29.8653Z" fill="url(#paint2_linear_7198_82473)"></path></g></g></g></g><defs><filter id="filter0_dd_7198_82473" x="-2.31488" y="-1.82893" width="132.411" height="119.468" filterUnits="userSpaceOnUse" color-interpolation-filters="sRGB"><feFlood flood-opacity="0" result="BackgroundImageFix"></feFlood><feColorMatrix in="SourceAlpha" type="matrix" values="0 0 0 0 0 0 0 0 0 0 0 0 0 0 0 0 0 0 127 0" result="hardAlpha"></feColorMatrix><feOffset dy="0.463238"></feOffset><feGaussianBlur stdDeviation="0.463238"></feGaussianBlur><feColorMatrix type="matrix" values="0 0 0 0 0 0 0 0 0 0 0 0 0 0 0 0 0 0 0.24 0"></feColorMatrix><feBlend mode="normal" in2="BackgroundImageFix" result="effect1_dropShadow_7198_82473"></feBlend><feColorMatrix in="SourceAlpha" type="matrix" values="0 0 0 0 0 0 0 0 0 0 0 0 0 0 0 0 0 0 127 0" result="hardAlpha"></feColorMatrix><feOffset dy="2.4381"></feOffset><feGaussianBlur stdDeviation="4.87619"></feGaussianBlur><feColorMatrix type="matrix" values="0 0 0 0 0 0 0 0 0 0 0 0 0 0 0 0 0 0 0.22 0"></feColorMatrix><feBlend mode="normal" in2="effect1_dropShadow_7198_82473" result="effect2_dropShadow_7198_82473"></feBlend><feBlend mode="normal" in="SourceGraphic" in2="effect2_dropShadow_7198_82473" result="shape"></feBlend></filter><filter id="filter1_dd_7198_82473" x="-2.31488" y="15.2375" width="132.411" height="119.466" filterUnits="userSpaceOnUse" color-interpolation-filters="sRGB"><feFlood flood-opacity="0" result="BackgroundImageFix"></feFlood><feColorMatrix in="SourceAlpha" type="matrix" values="0 0 0 0 0 0 0 0 0 0 0 0 0 0 0 0 0 0 127 0" result="hardAlpha"></feColorMatrix><feOffset dy="0.463238"></feOffset><feGaussianBlur stdDeviation="0.463238"></feGaussianBlur><feColorMatrix type="matrix" values="0 0 0 0 0 0 0 0 0 0 0 0 0 0 0 0 0 0 0.24 0"></feColorMatrix><feBlend mode="normal" in2="BackgroundImageFix" result="effect1_dropShadow_7198_82473"></feBlend><feColorMatrix in="SourceAlpha" type="matrix" values="0 0 0 0 0 0 0 0 0 0 0 0 0 0 0 0 0 0 127 0" result="hardAlpha"></feColorMatrix><feOffset dy="2.4381"></feOffset><feGaussianBlur stdDeviation="4.87619"></feGaussianBlur><feColorMatrix type="matrix" values="0 0 0 0 0 0 0 0 0 0 0 0 0 0 0 0 0 0 0.22 0"></feColorMatrix><feBlend mode="normal" in2="effect1_dropShadow_7198_82473" result="effect2_dropShadow_7198_82473"></feBlend><feBlend mode="normal" in="SourceGraphic" in2="effect2_dropShadow_7198_82473" result="shape"></feBlend></filter><filter id="filter2_dd_7198_82473" x="61.7585" y="-22.9676" width="90.0143" height="173.934" filterUnits="userSpaceOnUse" color-interpolation-filters="sRGB"><feFlood flood-opacity="0" result="BackgroundImageFix"></feFlood><feColorMatrix in="SourceAlpha" type="matrix" values="0 0 0 0 0 0 0 0 0 0 0 0 0 0 0 0 0 0 127 0" result="hardAlpha"></feColorMatrix><feOffset></feOffset><feGaussianBlur stdDeviation="0.24381"></feGaussianBlur><feColorMatrix type="matrix" values="0 0 0 0 0 0 0 0 0 0 0 0 0 0 0 0 0 0 0.24 0"></feColorMatrix><feBlend mode="normal" in2="BackgroundImageFix" result="effect1_dropShadow_7198_82473"></feBlend><feColorMatrix in="SourceAlpha" type="matrix" values="0 0 0 0 0 0 0 0 0 0 0 0 0 0 0 0 0 0 127 0" result="hardAlpha"></feColorMatrix><feOffset></feOffset><feGaussianBlur stdDeviation="14.6286"></feGaussianBlur><feColorMatrix type="matrix" values="0 0 0 0 0 0 0 0 0 0 0 0 0 0 0 0 0 0 0.3 0"></feColorMatrix><feBlend mode="normal" in2="effect1_dropShadow_7198_82473" result="effect2_dropShadow_7198_82473"></feBlend><feBlend mode="normal" in="SourceGraphic" in2="effect2_dropShadow_7198_82473" result="shape"></feBlend></filter><linearGradient id="paint0_linear_7198_82473" x1="100.572" y1="5.48536" x2="13.6725" y2="92.9473" gradientUnits="userSpaceOnUse"><stop stop-color="#7252AA"></stop><stop offset="1" stop-color="#7252AA"></stop></linearGradient><linearGradient id="paint1_linear_7198_82473" x1="16.4582" y1="26.8184" x2="98.1339" y2="118.246" gradientUnits="userSpaceOnUse"><stop stop-color="#AE7FE2"></stop><stop offset="1" stop-color="#9A70D4"></stop></linearGradient><linearGradient id="paint2_linear_7198_82473" x1="106.419" y1="3.93615" x2="106.419" y2="121.611" gradientUnits="userSpaceOnUse"><stop stop-color="#D59DFF"></stop><stop offset="1" stop-color="#C18EF1"></stop></linearGradient><clipPath id="clip0_7198_82473"><rect width="117.029" height="117.029" fill="white" transform="translate(5.48438 5.48535)"></rect></clipPath><clipPath id="clip1_7198_82473"><rect width="117.029" height="117.029" fill="white" transform="translate(5.48438 5.48535)"></rect></clipPath></defs></svg>

<svg xmlns="http://www.w3.org/2000/svg" width="128" height="128" fill="none"><g clip-path="url(#a)"><g clip-path="url(#b)"><mask id="c" style="mask-type:alpha" maskUnits="userSpaceOnUse" x="5" y="5" width="118" height="118"><path d="M26.939 104.471 7.436 89.843a4.832 4.832 0 0 1-1.952-3.9V42.056a4.833 4.833 0 0 1 1.952-3.9l19.503-14.63a4.416 4.416 0 0 0-1.34 3.901v73.143a4.415 4.415 0 0 0 1.34 3.9Z" fill="#fff"/><path d="M120.342 25.795a4.897 4.897 0 0 0-2.706-.804 4.739 4.739 0 0 0-3.364 1.364l-.341.342L75.019 64 53.49 84.65l-19.918 19.09-.342.342a4.74 4.74 0 0 1-3.364 1.366 4.9 4.9 0 0 1-2.926-.977L7.436 89.843a4.871 4.871 0 0 0 6.63-.732l21.65-25.135L53.49 43.35 84.625 7.19a4.807 4.807 0 0 1 3.68-1.706 4.9 4.9 0 0 1 2.707.805l29.33 19.505Z" fill="#fff"/><path d="m120.342 102.204-29.257 19.505a4.938 4.938 0 0 1-6.41-.877L53.49 84.65 35.716 63.976l-21.65-25.114a4.899 4.899 0 0 0-6.63-.706l19.503-14.628a4.9 4.9 0 0 1 2.926-.977 4.728 4.728 0 0 1 3.364 1.366l.342.342L53.49 43.35 75.02 64l38.911 37.303.341.342a4.741 4.741 0 0 0 3.364 1.364 4.888 4.888 0 0 0 2.706-.804Z" fill="#fff"/><path d="M122.513 29.866v68.268a4.889 4.889 0 0 1-2.171 4.07l-29.257 19.505a4.897 4.897 0 0 0 2.17-4.072V10.362a4.937 4.937 0 0 0-2.243-4.072l29.33 19.505a4.917 4.917 0 0 1 2.171 4.07Z" fill="#fff"/></mask><g mask="url(#c)"><path d="M26.939 104.471 7.436 89.843a4.833 4.833 0 0 1-1.952-3.9V42.056a4.833 4.833 0 0 1 1.952-3.9l19.503-14.63a4.417 4.417 0 0 0-1.34 3.901v73.143a4.415 4.415 0 0 0 1.34 3.9Z" fill="#5E438F"/><g filter="url(#d)"><path d="M120.344 25.795a4.898 4.898 0 0 0-2.706-.804 4.739 4.739 0 0 0-3.364 1.364l-.341.342-20.725 19.87L75.023 64l-21.53 20.65-19.919 19.09-.342.342a4.74 4.74 0 0 1-3.364 1.366 4.9 4.9 0 0 1-2.926-.977L7.438 89.843a4.872 4.872 0 0 0 6.63-.732l10.924-12.677 10.726-12.458L53.492 43.35 84.627 7.19a4.807 4.807 0 0 1 3.68-1.706 4.9 4.9 0 0 1 2.707.805l29.33 19.505Z" fill="url(#e)"/></g><g filter="url(#f)"><path d="M120.344 102.204 91.087 121.71a4.938 4.938 0 0 1-6.41-.878L53.491 84.65 35.718 63.976 24.992 51.542l-10.924-12.68a4.899 4.899 0 0 0-6.63-.705L26.94 23.528a4.9 4.9 0 0 1 2.926-.976 4.728 4.728 0 0 1 3.364 1.366l.342.342 19.919 19.09L75.022 64l18.212 17.457 20.699 19.846.341.342a4.738 4.738 0 0 0 3.364 1.364 4.897 4.897 0 0 0 2.706-.805Z" fill="url(#g)"/></g><g filter="url(#h)"><path d="M122.516 29.865v68.268a4.884 4.884 0 0 1-2.17 4.071l-29.257 19.505a4.897 4.897 0 0 0 2.17-4.072V10.362a4.937 4.937 0 0 0-2.243-4.072l29.33 19.505a4.926 4.926 0 0 1 2.17 4.07Z" fill="url(#i)"/></g></g></g></g><defs><linearGradient id="e" x1="100.572" y1="5.485" x2="13.672" y2="92.947" gradientUnits="userSpaceOnUse"><stop stop-color="#7252AA"/><stop offset="1" stop-color="#7252AA"/></linearGradient><linearGradient id="g" x1="16.458" y1="26.818" x2="98.134" y2="118.246" gradientUnits="userSpaceOnUse"><stop stop-color="#AE7FE2"/><stop offset="1" stop-color="#9A70D4"/></linearGradient><linearGradient id="i" x1="106.419" y1="3.936" x2="106.419" y2="121.611" gradientUnits="userSpaceOnUse"><stop stop-color="#D59DFF"/><stop offset="1" stop-color="#C18EF1"/></linearGradient><filter id="d" x="-2.315" y="-1.829" width="132.411" height="119.468" filterUnits="userSpaceOnUse" color-interpolation-filters="sRGB"><feFlood flood-opacity="0" result="BackgroundImageFix"/><feColorMatrix in="SourceAlpha" values="0 0 0 0 0 0 0 0 0 0 0 0 0 0 0 0 0 0 127 0" result="hardAlpha"/><feOffset dy=".463"/><feGaussianBlur stdDeviation=".463"/><feColorMatrix values="0 0 0 0 0 0 0 0 0 0 0 0 0 0 0 0 0 0 0.24 0"/><feBlend in2="BackgroundImageFix" result="effect1_dropShadow_7198_82473"/><feColorMatrix in="SourceAlpha" values="0 0 0 0 0 0 0 0 0 0 0 0 0 0 0 0 0 0 127 0" result="hardAlpha"/><feOffset dy="2.438"/><feGaussianBlur stdDeviation="4.876"/><feColorMatrix values="0 0 0 0 0 0 0 0 0 0 0 0 0 0 0 0 0 0 0.22 0"/><feBlend in2="effect1_dropShadow_7198_82473" result="effect2_dropShadow_7198_82473"/><feBlend in="SourceGraphic" in2="effect2_dropShadow_7198_82473" result="shape"/></filter><filter id="f" x="-2.315" y="15.238" width="132.411" height="119.466" filterUnits="userSpaceOnUse" color-interpolation-filters="sRGB"><feFlood flood-opacity="0" result="BackgroundImageFix"/><feColorMatrix in="SourceAlpha" values="0 0 0 0 0 0 0 0 0 0 0 0 0 0 0 0 0 0 127 0" result="hardAlpha"/><feOffset dy=".463"/><feGaussianBlur stdDeviation=".463"/><feColorMatrix values="0 0 0 0 0 0 0 0 0 0 0 0 0 0 0 0 0 0 0.24 0"/><feBlend in2="BackgroundImageFix" result="effect1_dropShadow_7198_82473"/><feColorMatrix in="SourceAlpha" values="0 0 0 0 0 0 0 0 0 0 0 0 0 0 0 0 0 0 127 0" result="hardAlpha"/><feOffset dy="2.438"/><feGaussianBlur stdDeviation="4.876"/><feColorMatrix values="0 0 0 0 0 0 0 0 0 0 0 0 0 0 0 0 0 0 0.22 0"/><feBlend in2="effect1_dropShadow_7198_82473" result="effect2_dropShadow_7198_82473"/><feBlend in="SourceGraphic" in2="effect2_dropShadow_7198_82473" result="shape"/></filter><filter id="h" x="61.758" y="-22.968" width="90.014" height="173.934" filterUnits="userSpaceOnUse" color-interpolation-filters="sRGB"><feFlood flood-opacity="0" result="BackgroundImageFix"/><feColorMatrix in="SourceAlpha" values="0 0 0 0 0 0 0 0 0 0 0 0 0 0 0 0 0 0 127 0" result="hardAlpha"/><feOffset/><feGaussianBlur stdDeviation=".244"/><feColorMatrix values="0 0 0 0 0 0 0 0 0 0 0 0 0 0 0 0 0 0 0.24 0"/><feBlend in2="BackgroundImageFix" result="effect1_dropShadow_7198_82473"/><feColorMatrix in="SourceAlpha" values="0 0 0 0 0 0 0 0 0 0 0 0 0 0 0 0 0 0 127 0" result="hardAlpha"/><feOffset/><feGaussianBlur stdDeviation="14.629"/><feColorMatrix values="0 0 0 0 0 0 0 0 0 0 0 0 0 0 0 0 0 0 0.3 0"/><feBlend in2="effect1_dropShadow_7198_82473" result="effect2_dropShadow_7198_82473"/><feBlend in="SourceGraphic" in2="effect2_dropShadow_7198_82473" result="shape"/></filter><clipPath id="a"><path fill="#fff" transform="translate(5.484 5.485)" d="M0 0h117.029v117.029H0z"/></clipPath><clipPath id="b"><path fill="#fff" transform="translate(5.484 5.485)" d="M0 0h117.029v117.029H0z"/></clipPath></defs></svg>
